carriers/postDe.svg

<svg width="128" height="64" viewBox="0 0 128 64" fill="none" xmlns="http://www.w3.org/2000/svg">
<rect width="128" height="64" rx="6" fill="#FFCC00"/>
<path fill-rule="evenodd" clip-rule="evenodd" d="M108.932 37.7629C100.441 37.7629 97.1284 30.3418 97.5796 24.747L100.085 23.9563C99.7382 26.2156 100.177 28.5255 101.327 30.5008C100.983 28.7166 101.36 26.869 102.374 25.3617C103.389 23.8544 104.959 22.81 106.741 22.4566C107.217 22.3658 107.701 22.324 108.185 22.332C112.018 22.332 115.193 25.1337 115.176 29.1472C115.761 27.3673 116.108 25.5178 116.207 23.6469L122 25.0822C121.519 31.8372 116.448 37.7629 108.932 37.7629ZM117.217 41.6689L113.943 38.3559H117.183L120.462 41.6689H117.217ZM112.839 41.6689L109.538 38.3559H112.791L116.07 41.6689H112.839ZM105.533 41.6689H102.289L105.564 38.3559H108.812L105.533 41.6689ZM97.9104 41.6689L101.189 38.3559H104.433L101.159 41.6689H97.9104ZM108.223 24.6868C107.312 24.6851 106.421 24.9538 105.662 25.459C104.903 25.9641 104.311 26.6829 103.962 27.5245C103.612 28.3661 103.519 29.2926 103.696 30.1867C103.873 31.0808 104.311 31.9024 104.955 32.5475C105.598 33.1926 106.419 33.6322 107.313 33.8106C108.207 33.9891 109.133 33.8984 109.976 33.55C110.818 33.2016 111.538 32.6111 112.044 31.8534C112.551 31.0957 112.821 30.2048 112.821 29.2933C112.819 28.0723 112.332 26.9022 111.468 26.0401C110.603 25.1779 109.432 24.6943 108.211 24.6954" fill="#231F20"/>
<path fill-rule="evenodd" clip-rule="evenodd" d="M90.9406 38.4461C89.4796 38.4461 88.6717 37.5437 88.6717 36.1214V32.4732H87.2881V31.1067H88.6717V29.6672L90.5453 29.0699V31.1067H92.1996V32.4732H90.5453V35.8292C90.5453 36.4394 90.7043 37.0066 91.4047 37.0066C91.7021 37.0175 91.9975 36.954 92.2641 36.8218L92.3114 38.2914C91.8646 38.4104 91.4027 38.4625 90.9406 38.4461ZM83.6355 38.4461C82.9175 38.4322 82.2042 38.3268 81.5128 38.1325L81.6245 36.607C82.1899 36.9034 82.8167 37.0638 83.4551 37.0754C83.932 37.0754 84.6969 36.8992 84.6969 36.2159C84.6969 34.8108 81.444 35.7862 81.444 33.1779C81.444 31.6224 82.7976 30.9391 84.2672 30.9391C84.9531 30.9474 85.6356 31.0383 86.2997 31.2098L86.1794 32.6236C85.6508 32.4169 85.0883 32.3105 84.5207 32.3099C84.0223 32.3099 83.4164 32.4947 83.4164 33.1134C83.4164 34.2522 86.6693 33.5432 86.6693 36.1214C86.6693 37.8102 85.1782 38.4719 83.6613 38.4719L83.6355 38.4461ZM76.8977 38.4461C74.5214 38.4461 73.1377 36.7875 73.1377 34.7163C73.1377 32.34 74.7964 30.9004 76.8977 30.9004C77.4023 30.8793 77.9057 30.964 78.3756 31.1489C78.8456 31.3338 79.2716 31.615 79.6265 31.9743C79.9814 32.3336 80.2572 32.7632 80.4362 33.2354C80.6153 33.7076 80.6936 34.212 80.6663 34.7163C80.6663 36.7875 79.2869 38.4461 76.8977 38.4461ZM69.4036 34.5788H68.5742V38.2743H66.6234V28.5628H69.1071C71.2298 28.5628 73.1678 29.1773 73.1678 31.502C73.1678 33.8268 71.5135 34.5788 69.4165 34.5788H69.4036ZM59.6148 37.0668C60.4596 37.0376 61.282 36.7872 61.9997 36.3406V37.866C61.2369 38.2736 60.3804 38.4736 59.516 38.4461C57.1483 38.4461 55.7646 37.0754 55.7646 34.7163C55.7646 32.6451 56.869 30.9176 59.1035 30.9176C61.7676 30.9176 62.5411 32.7482 62.5411 35.2663H57.5436C57.6295 36.4222 58.4331 37.0754 59.5933 37.0754L59.6148 37.0668ZM54.888 38.2743H53.0231V34.4498C53.0231 33.5904 53.0231 32.3786 51.8027 32.3786C50.4491 32.3786 50.1483 33.844 50.1483 34.7635V38.2786H48.2791V27.8237H50.1483V32.0779C50.4027 31.7158 50.7424 31.422 51.1374 31.2226C51.5324 31.0233 51.9705 30.9244 52.4129 30.9348C54.1317 30.9348 54.8536 32.1423 54.8536 33.7623L54.888 38.2743ZM45.4344 38.4461C43.0753 38.4461 41.8893 36.8347 41.8893 34.6518C41.8893 32.5806 43.1355 30.9219 45.3699 30.9219C45.9827 30.912 46.5936 30.9917 47.1833 31.1583L47.0114 32.6408C46.6239 32.4563 46.1987 32.365 45.7696 32.3743C44.6051 32.3743 43.866 33.2939 43.866 34.6518C43.866 36.0097 44.4976 36.9894 45.8083 36.9894C46.3054 36.9733 46.7946 36.8594 47.2478 36.6543L47.2993 38.1969C46.6946 38.3769 46.0651 38.4596 45.4344 38.4418V38.4461ZM38.1594 38.4461C37.4493 38.436 36.7433 38.3364 36.0582 38.1496L36.1656 36.6242C36.7366 36.9221 37.3693 37.0825 38.0133 37.0926C38.486 37.0926 39.2552 36.9164 39.2552 36.2331C39.2552 34.828 36.0066 35.8034 36.0066 33.1951C36.0066 31.6395 37.3602 30.9563 38.8255 30.9563C39.5128 30.9648 40.1966 31.0557 40.8623 31.227L40.7377 32.6408C40.2028 32.4299 39.6325 32.3234 39.0575 32.3271C38.5591 32.3271 37.9618 32.5119 37.9618 33.1306C37.9618 34.2694 41.2104 33.5603 41.2104 36.1386C41.2104 37.8274 39.7193 38.4891 38.2024 38.4891L38.1594 38.4461ZM33.7506 38.4461C32.2853 38.4461 31.4732 37.5437 31.4732 36.1214V32.4732H30.0895V31.1067H31.4646V29.6672L33.3381 29.0699V31.1067H34.9925V32.4732H33.3381V35.8292C33.3381 36.4394 33.5014 37.0066 34.1975 37.0066C34.4952 37.0206 34.7913 36.9569 35.0569 36.8218L35.1171 38.2914C34.6714 38.4084 34.2112 38.4606 33.7506 38.4461ZM29.2516 38.2743H27.464V37.3203H27.4339C27.1512 37.6728 26.7926 37.957 26.385 38.1519C25.9773 38.3468 25.5309 38.4474 25.0791 38.4461C23.3602 38.4461 22.6383 37.243 22.6383 35.6272V31.0895H24.5162V34.9311C24.5162 35.812 24.5162 36.998 25.7279 36.998C27.0772 36.998 27.3866 35.5327 27.3866 34.6131V31.1067H29.2602L29.2516 38.2743ZM18.8698 37.0926C19.7158 37.0627 20.5394 36.8124 21.259 36.3663V37.8918C20.4947 38.289 19.6402 38.48 18.7795 38.4461C16.4076 38.4461 15.0282 37.0754 15.0282 34.7163C15.0282 32.6451 16.1325 30.9176 18.3412 30.9176C21.0097 30.9176 21.7789 32.7482 21.7789 35.2663H16.79C16.8716 36.4222 17.6838 37.0754 18.8612 37.0754L18.8698 37.0926ZM8.67279 38.2914H6V28.5628H8.6642C11.6722 28.5628 14.2848 29.5641 14.2848 33.4357C14.2848 37.3074 11.6507 38.2914 8.6642 38.2914H8.67279ZM18.4788 32.3056C17.4303 32.3056 16.9017 33.0361 16.8201 33.9944H19.9999C19.9441 33.0877 19.5272 32.3056 18.4788 32.3056ZM9.02515 30.0883H7.95518V36.7574H9.03804C9.88294 36.7643 10.696 36.4355 11.2987 35.8433C11.9014 35.2511 12.2443 34.4439 12.2523 33.599C12.2523 33.5475 12.2523 33.4959 12.2523 33.44C12.2754 33.0225 12.2159 32.6046 12.0772 32.2101C11.9384 31.8157 11.7231 31.4525 11.4436 31.1415C11.1641 30.8305 10.826 30.5777 10.4486 30.3977C10.0712 30.2177 9.6619 30.114 9.2443 30.0926C9.1757 30.087 9.10682 30.0856 9.03804 30.0883H9.02515ZM69.2446 30.0883H68.5613V33.0576H69.2446C70.2286 33.0576 71.1052 32.7482 71.1052 31.6052C71.1052 30.4621 70.2673 30.0883 69.2575 30.0883H69.2446ZM76.8891 32.3915C75.673 32.3915 75.0843 33.4486 75.0843 34.5401C75.0843 35.7218 75.4668 37.0238 76.8891 37.0238C78.3114 37.0238 78.7025 35.7347 78.7025 34.5401C78.7154 33.4271 78.131 32.3915 76.902 32.3915H76.8891ZM59.2109 32.3056C58.1667 32.3056 57.6381 33.0361 57.5565 33.9944H60.7363C60.6848 33.0877 60.2637 32.3056 59.2152 32.3056" fill="#231F20"/>
</svg>

<svg xmlns="http://www.w3.org/2000/svg" width="128" height="64" fill="none"><rect width="128" height="64" fill="#FC0" rx="6"/><path fill="#231F20" fill-rule="evenodd" d="M108.932 37.763c-8.491 0-11.804-7.421-11.352-13.016l2.505-.79a9.994 9.994 0 0 0 1.242 6.544 6.875 6.875 0 0 1 5.414-8.044c.476-.091.96-.133 1.444-.125 3.833 0 7.008 2.802 6.991 6.815.585-1.78.932-3.63 1.031-5.5L122 25.082c-.481 6.755-5.552 12.68-13.068 12.68Zm8.285 3.906-3.274-3.313h3.24l3.279 3.313h-3.245Zm-4.378 0-3.301-3.313h3.253l3.279 3.313h-3.231Zm-7.306 0h-3.244l3.275-3.313h3.248l-3.279 3.313Zm-7.623 0 3.279-3.313h3.244l-3.274 3.313H97.91Zm10.313-16.982a4.606 4.606 0 1 0 4.598 4.606 4.607 4.607 0 0 0-4.61-4.598M90.94 38.446c-1.46 0-2.268-.902-2.268-2.325v-3.648h-1.384v-1.366h1.384v-1.44l1.873-.597v2.037H92.2v1.366h-1.655v3.356c0 .61.16 1.178.86 1.178.297.01.593-.053.86-.185l.046 1.47a4.68 4.68 0 0 1-1.37.154Zm-7.305 0a8.45 8.45 0 0 1-2.122-.313l.111-1.526a4.103 4.103 0 0 0 1.831.468c.477 0 1.242-.176 1.242-.86 0-1.404-3.253-.429-3.253-3.037 0-1.556 1.354-2.239 2.823-2.239.686.008 1.369.1 2.033.27l-.12 1.415a4.568 4.568 0 0 0-1.66-.314c-.498 0-1.104.185-1.104.803 0 1.14 3.253.43 3.253 3.008 0 1.69-1.49 2.35-3.008 2.35l-.026-.025Zm-6.737 0c-2.377 0-3.76-1.658-3.76-3.73 0-2.376 1.658-3.816 3.76-3.816a3.623 3.623 0 0 1 3.768 3.816c0 2.072-1.38 3.73-3.768 3.73Zm-7.494-3.867h-.83v3.695h-1.95v-9.711h2.483c2.123 0 4.06.614 4.06 2.939s-1.654 3.077-3.75 3.077h-.013Zm-9.79 2.488A4.83 4.83 0 0 0 62 36.34v1.525a4.937 4.937 0 0 1-2.484.58c-2.368 0-3.751-1.37-3.751-3.73 0-2.07 1.104-3.798 3.338-3.798 2.665 0 3.438 1.83 3.438 4.348h-4.997c.086 1.156.89 1.81 2.05 1.81l.02-.01Zm-4.726 1.207h-1.865V34.45c0-.86 0-2.071-1.22-2.071-1.354 0-1.655 1.465-1.655 2.385v3.515H48.28V27.824h1.87v4.254a2.69 2.69 0 0 1 2.264-1.143c1.719 0 2.44 1.207 2.44 2.827l.035 4.512Zm-9.454.172c-2.359 0-3.545-1.611-3.545-3.794 0-2.071 1.246-3.73 3.48-3.73.614-.01 1.225.07 1.814.236l-.172 1.483a2.75 2.75 0 0 0-1.241-.267c-1.165 0-1.904.92-1.904 2.278s.632 2.337 1.942 2.337a3.79 3.79 0 0 0 1.44-.335l.051 1.543a5.949 5.949 0 0 1-1.865.245v.004Zm-7.275 0a8.444 8.444 0 0 1-2.1-.296l.107-1.526a4.135 4.135 0 0 0 1.847.469c.473 0 1.242-.177 1.242-.86 0-1.405-3.248-.43-3.248-3.038 0-1.555 1.353-2.239 2.819-2.239a8.6 8.6 0 0 1 2.036.271l-.124 1.414a4.502 4.502 0 0 0-1.68-.314c-.499 0-1.096.185-1.096.804 0 1.138 3.248.43 3.248 3.008 0 1.688-1.49 2.35-3.008 2.35l-.043-.043Zm-4.408 0c-1.466 0-2.278-.902-2.278-2.325v-3.648H30.09v-1.366h1.375v-1.44l1.873-.597v2.037h1.654v1.366h-1.654v3.356c0 .61.163 1.178.86 1.178.297.014.593-.05.859-.185l.06 1.47c-.446.116-.906.169-1.366.154Zm-4.5-.172h-1.787v-.954h-.03a3.008 3.008 0 0 1-2.355 1.126c-1.719 0-2.44-1.203-2.44-2.819V31.09h1.877v3.842c0 .881 0 2.067 1.212 2.067 1.35 0 1.659-1.465 1.659-2.385v-3.506h1.873l-.008 7.167ZM18.87 37.093a4.86 4.86 0 0 0 2.389-.727v1.526a4.954 4.954 0 0 1-2.48.554c-2.371 0-3.75-1.37-3.75-3.73 0-2.07 1.104-3.798 3.312-3.798 2.669 0 3.438 1.83 3.438 4.348H16.79c.082 1.156.894 1.81 2.071 1.81l.009.017ZM8.673 38.29H6v-9.728h2.664c3.008 0 5.62 1.001 5.62 4.873 0 3.871-2.633 4.855-5.62 4.855h.009Zm9.806-5.985c-1.049 0-1.577.73-1.659 1.688H20c-.056-.906-.473-1.688-1.521-1.688Zm-9.454-2.218h-1.07v6.67h1.083a3.188 3.188 0 0 0 3.214-3.159v-.159a3.178 3.178 0 0 0-3.214-3.352h-.013Zm60.22 0h-.684v2.97h.684c.984 0 1.86-.31 1.86-1.453s-.838-1.517-1.848-1.517h-.012Zm7.644 2.303c-1.216 0-1.805 1.058-1.805 2.15 0 1.18.383 2.483 1.805 2.483s1.814-1.29 1.814-2.484c.012-1.113-.572-2.148-1.801-2.148h-.013Zm-17.678-.085c-1.044 0-1.573.73-1.654 1.688h3.18c-.052-.906-.473-1.688-1.522-1.688" clip-rule="evenodd"/></svg>
